assets/svg/star-o.svg

<?xml version="1.0" encoding="UTF-8"?>
<svg width="1000px" height="1000px" viewBox="0 0 1000 1000" version="1.1" xmlns="http://www.w3.org/2000/svg" xmlns:xlink="http://www.w3.org/1999/xlink">
    <!-- Generator: sketchtool 52.4 (67378) - http://www.bohemiancoding.com/sketch -->
    <title>star-o</title>
    <desc>Created with sketchtool.</desc>
    <g id="新版图标" stroke="none" stroke-width="1" fill="none" fill-rule="evenodd">
        <g id="star-o" fill="#323233" fill-rule="nonzero">
            <g id="圆角收藏">
                <path d="M479.995392,734.777165 C492.781732,729.360194 507.218268,729.360194 520.004608,734.777165 L708.374463,814.580621 L690.686352,610.769619 C689.485703,596.935151 693.946838,583.205189 703.04988,572.718593 L837.156963,418.22884 L637.855255,372.070169 C624.326873,368.936969 612.64747,360.451386 605.487119,348.553342 L500,173.269967 L394.512881,348.553342 C387.35253,360.451386 375.673127,368.936969 362.144745,372.070169 L162.843037,418.22884 L296.95012,572.718593 C306.053162,583.205189 310.514297,596.935151 309.313648,610.769619 L291.625537,814.580621 L479.995392,734.777165 Z M297.015722,881.914972 C270.93721,892.963212 240.840031,880.77877 229.791791,854.700258 C226.526211,846.992109 225.197303,838.601714 225.921105,830.26171 L244.981524,610.638303 L100.469922,444.162669 C81.9037179,422.774624 84.1912717,390.385306 105.579316,371.819102 C111.901081,366.331402 119.470166,362.47476 127.625649,360.585934 L342.389914,310.846105 L456.06111,121.963604 C470.665077,97.6968253 502.176042,89.8635685 526.442821,104.467535 C533.615467,108.784098 539.622326,114.790958 543.93889,121.963604 L657.610086,310.846105 L872.374351,360.585934 C899.966303,366.976285 917.153596,394.524384 910.763246,422.116336 C908.87442,430.271819 905.017778,437.840904 899.530078,444.162669 L755.018476,610.638303 L774.078895,830.26171 C776.527692,858.477942 755.639059,883.336861 727.422826,885.785658 C719.082822,886.509461 710.692427,885.180553 702.984278,881.914972 L500,795.920072 L297.015722,881.914972 Z M245.451137,605.227195 C245.150975,608.685812 246.266259,612.118302 248.542019,614.739951 L244.981524,610.638303 L245.451137,605.227195 Z" id="Star-2"></path>
            </g>
        </g>
    </g>
</svg>

<svg width="1000" height="1000" xmlns="http://www.w3.org/2000/svg"><path d="M479.995 734.777a51.282 51.282 0 0 1 40.01 0l188.37 79.804-17.689-203.811a51.282 51.282 0 0 1 12.364-38.051l134.107-154.49-199.302-46.159a51.282 51.282 0 0 1-32.368-23.517L500 173.27 394.513 348.553a51.282 51.282 0 0 1-32.368 23.517L162.843 418.23l134.107 154.49a51.282 51.282 0 0 1 12.364 38.05l-17.688 203.812 188.37-79.804zm-182.98 147.138c-26.078 11.048-56.175-1.136-67.223-27.215a51.282 51.282 0 0 1-3.87-24.438l19.06-219.624L100.47 444.163c-18.566-21.388-16.279-53.778 5.11-72.344a51.282 51.282 0 0 1 22.046-11.233l214.764-49.74L456.06 121.964c14.604-24.267 46.115-32.1 70.382-17.496a51.282 51.282 0 0 1 17.496 17.496L657.61 310.846l214.764 49.74c27.592 6.39 44.78 33.938 38.39 61.53a51.282 51.282 0 0 1-11.234 22.047L755.018 610.638l19.06 219.624c2.45 28.216-18.439 53.075-46.655 55.524a51.282 51.282 0 0 1-24.439-3.871L500 795.92l-202.984 85.995zm-51.564-276.688a12.82 12.82 0 0 0 3.091 9.513l-3.56-4.102.47-5.41z" fill="#323233" fill-rule="nonzero"/></svg>
